public/images/ademe/conducteur.svg

<svg width="20" height="24" viewBox="0 0 20 24" fill="none" xmlns="http://www.w3.org/2000/svg">
<path d="M13.452 10.6971C14.865 9.69985 15.7824 8.10675 15.7824 6.30675C15.7824 3.28192 13.1911 0.828125 9.99547 0.828125C6.79981 0.828125 4.20851 3.28192 4.20851 6.30675C4.20851 8.10675 5.1259 9.69571 6.53894 10.6971C4.70416 11.7895 3.48242 13.7136 3.48242 15.915V22.2295H16.5042V15.915C16.5042 13.7136 15.2824 11.7854 13.4476 10.6971H13.452Z" fill="#FFDC49"/>
<path d="M16.509 23.0565H3.49164C3.01337 23.0565 2.62207 22.6841 2.62207 22.229V15.9145C2.62207 13.8621 3.55685 11.9545 5.16555 10.6345C3.99598 9.47172 3.34381 7.94483 3.34381 6.30621C3.34381 2.83034 6.33077 0 10.0003 0C13.6699 0 16.6569 2.83034 16.6569 6.30621C16.6569 7.94483 16.0047 9.47586 14.8351 10.6345C16.4482 11.9545 17.3786 13.8579 17.3786 15.9145V22.229C17.3786 22.6841 16.9873 23.0565 16.509 23.0565ZM4.35685 21.4014H15.6395V15.9145C15.6395 14.0731 14.6482 12.3807 12.9916 11.3959C12.7482 11.251 12.596 10.9986 12.5829 10.7255C12.5699 10.4524 12.7047 10.1917 12.9351 10.0262C14.196 9.13655 14.9177 7.77931 14.9177 6.30207C14.9177 3.73655 12.7134 1.65103 10.0003 1.65103C7.28729 1.65103 5.08294 3.73655 5.08294 6.30207C5.08294 7.77931 5.80468 9.13655 7.06555 10.0262C7.29598 10.1876 7.42642 10.4524 7.41772 10.7255C7.40468 10.9986 7.25251 11.251 7.00903 11.3959C5.35251 12.3807 4.3612 14.0731 4.3612 15.9145V21.4014H4.35685Z" fill="#004241"/>
<path d="M19.13 23.1737C19.13 18.3985 15.0431 14.5254 9.99958 14.5254C4.9561 14.5254 0.869141 18.3985 0.869141 23.1737" fill="#9FDECF"/>
<path d="M19.1304 24.0007C18.6522 24.0007 18.2609 23.6283 18.2609 23.1731C18.2609 18.8614 14.5565 15.3524 10 15.3524C5.44348 15.3524 1.73913 18.8614 1.73913 23.1731C1.73913 23.6283 1.34783 24.0007 0.869565 24.0007C0.391304 24.0007 0 23.6283 0 23.1731C0 17.9469 4.48696 13.6973 10 13.6973C15.513 13.6973 20 17.9469 20 23.1731C20 23.6283 19.6087 24.0007 19.1304 24.0007Z" fill="#004241"/>
<path d="M14.7744 23.1731C14.7744 20.678 12.6353 18.6504 10.0005 18.6504C7.36569 18.6504 5.22656 20.6738 5.22656 23.1731" fill="#FFDC49"/>
<path d="M14.7738 24.0002C14.2956 24.0002 13.9043 23.6278 13.9043 23.1726C13.9043 21.1367 12.1521 19.4774 9.99992 19.4774C7.84775 19.4774 6.09558 21.1326 6.09558 23.1726C6.09558 23.6278 5.70427 24.0002 5.22601 24.0002C4.74775 24.0002 4.35645 23.6278 4.35645 23.1726C4.35645 20.2223 6.88688 17.8223 9.99992 17.8223C13.113 17.8223 15.6434 20.2223 15.6434 23.1726C15.6434 23.6278 15.2521 24.0002 14.7738 24.0002Z" fill="#004241"/>
<path d="M2.35606 19.5177L3.44302 19.2653C4.49084 19.0211 5.22563 18.1315 5.22563 17.1136V16.1329C5.22563 15.7853 4.92997 15.5039 4.56476 15.5039H2.93432C1.85606 15.5039 1.04302 16.4225 1.22997 17.428L1.52128 19.0005C1.59084 19.3729 1.9778 19.6087 2.36041 19.5177H2.35606Z" fill="#FFDC49"/>
<path d="M2.19533 20.3635C1.89533 20.3635 1.59533 20.2807 1.34315 20.1235C0.982284 19.9 0.734458 19.5442 0.660545 19.1428L0.369241 17.5704C0.234458 16.8504 0.443154 16.118 0.934458 15.5593C1.43011 14.9966 2.1562 14.6738 2.93011 14.6738H4.56054C5.40402 14.6738 6.09098 15.3276 6.09098 16.1304V17.1111C6.09098 18.518 5.08663 19.7345 3.6475 20.0697L2.56055 20.3221C2.43881 20.3511 2.31272 20.3635 2.19098 20.3635H2.19533ZM2.93446 16.329C2.58228 16.329 2.36924 16.5111 2.26924 16.6228C2.17359 16.7304 2.02141 16.958 2.08228 17.2807L2.33881 18.6669L3.23881 18.4559C3.89533 18.3028 4.3562 17.7483 4.3562 17.1069V16.329H2.93011H2.93446Z" fill="#004241"/>
<path d="M17.7905 19.5177L16.7035 19.2653C15.6557 19.0211 14.9209 18.1315 14.9209 17.1136V16.1329C14.9209 15.7853 15.2166 15.5039 15.5818 15.5039H17.2122C18.2905 15.5039 19.1035 16.4225 18.9165 17.428L18.6252 19.0005C18.5557 19.3729 18.1687 19.6087 17.7861 19.5177H17.7905Z" fill="#FFDC49"/>
<path d="M17.9518 20.3635C17.83 20.3635 17.7039 20.3511 17.5822 20.3221L16.4952 20.0697C15.0561 19.7345 14.0518 18.518 14.0518 17.1111V16.1304C14.0518 15.3276 14.7387 14.6738 15.5822 14.6738H17.2126C17.9865 14.6738 18.7126 14.9966 19.2083 15.5593C19.6996 16.118 19.9083 16.8504 19.7735 17.5704L19.4822 19.1428C19.4083 19.5442 19.1605 19.9 18.7996 20.1235C18.5431 20.2807 18.2474 20.3635 17.9474 20.3635H17.9518ZM15.7909 16.329V17.1069C15.7909 17.7483 16.2518 18.3028 16.9083 18.4559L17.8083 18.6669L18.0648 17.2807C18.1257 16.958 17.9735 16.7304 17.8778 16.6228C17.7822 16.5152 17.5648 16.329 17.2126 16.329H15.7865H15.7909Z" fill="#004241"/>
</svg>

<svg xmlns="http://www.w3.org/2000/svg" width="20" height="24" fill="none"><path fill="#FFDC49" d="M13.452 10.697c1.413-.997 2.33-2.59 2.33-4.39 0-3.025-2.59-5.479-5.787-5.479C6.8.828 4.21 3.282 4.21 6.307c0 1.8.917 3.389 2.33 4.39-1.835 1.093-3.057 3.017-3.057 5.218v6.315h13.022v-6.315c0-2.201-1.222-4.13-3.056-5.218z"/><path fill="#004241" d="M16.509 23.057H3.492c-.479 0-.87-.373-.87-.828v-6.314c0-2.053.935-3.96 2.544-5.28-1.17-1.163-1.822-2.69-1.822-4.329C3.344 2.83 6.33 0 10 0s6.657 2.83 6.657 6.306c0 1.639-.652 3.17-1.822 4.328 1.613 1.32 2.544 3.224 2.544 5.28v6.315c0 .455-.392.828-.87.828M4.357 21.4h11.282v-5.486c0-1.842-.99-3.534-2.647-4.52a.83.83 0 0 1-.41-.67.82.82 0 0 1 .353-.699c1.261-.89 1.983-2.247 1.983-3.724 0-2.565-2.205-4.651-4.918-4.651S5.083 3.737 5.083 6.302c0 1.477.722 2.835 1.983 3.724.23.162.36.426.352.7a.83.83 0 0 1-.409.67c-1.656.985-2.648 2.677-2.648 4.518v5.487z"/><path fill="#9FDECF" d="M19.13 23.174c0-4.776-4.087-8.649-9.13-8.649S.87 18.398.87 23.174"/><path fill="#004241" d="M19.13 24c-.478 0-.87-.372-.87-.827 0-4.312-3.704-7.82-8.26-7.82-4.557 0-8.26 3.508-8.26 7.82 0 .455-.392.828-.87.828-.479 0-.87-.373-.87-.828 0-5.226 4.487-9.476 10-9.476s10 4.25 10 9.476c0 .455-.391.828-.87.828"/><path fill="#FFDC49" d="M14.774 23.173c0-2.495-2.139-4.523-4.773-4.523s-4.774 2.024-4.774 4.523"/><path fill="#004241" d="M14.774 24c-.478 0-.87-.372-.87-.827 0-2.036-1.752-3.696-3.904-3.696s-3.904 1.656-3.904 3.696c0 .455-.392.827-.87.827s-.87-.372-.87-.827c0-2.95 2.53-5.35 5.644-5.35 3.113 0 5.643 2.4 5.643 5.35 0 .455-.39.827-.87.827"/><path fill="#FFDC49" d="m2.356 19.518 1.087-.253c1.048-.244 1.783-1.134 1.783-2.151v-.981c0-.348-.296-.63-.661-.63h-1.63c-1.079 0-1.892.92-1.705 1.925L1.521 19c.07.373.457.609.84.518z"/><path fill="#004241" d="M2.195 20.364c-.3 0-.6-.083-.852-.24a1.48 1.48 0 0 1-.682-.981L.369 17.57a2.37 2.37 0 0 1 .565-2.01 2.65 2.65 0 0 1 1.996-.886h1.63c.844 0 1.531.654 1.531 1.456v.981c0 1.407-1.004 2.624-2.443 2.959l-1.087.252a1.6 1.6 0 0 1-.37.041zm.74-4.035a.87.87 0 0 0-.666.294.76.76 0 0 0-.187.658l.257 1.386.9-.211c.656-.153 1.117-.708 1.117-1.35v-.777H2.93z"/><path fill="#FFDC49" d="m17.79 19.518-1.087-.253c-1.047-.244-1.782-1.134-1.782-2.151v-.981c0-.348.296-.63.66-.63h1.631c1.079 0 1.892.92 1.704 1.925L18.627 19c-.07.373-.457.609-.84.518z"/><path fill="#004241" d="M17.952 20.364a1.6 1.6 0 0 1-.37-.042l-1.087-.252c-1.439-.335-2.443-1.552-2.443-2.959v-.98c0-.803.687-1.457 1.53-1.457h1.63c.774 0 1.5.323 1.996.885.492.559.7 1.291.566 2.011l-.292 1.573a1.47 1.47 0 0 1-.682.98 1.63 1.63 0 0 1-.853.24zm-2.161-4.035v.778c0 .641.46 1.196 1.117 1.349l.9.21.257-1.385a.76.76 0 0 0-.187-.658.88.88 0 0 0-.665-.294h-1.427z"/></svg>
